docs/images/icons/beauty.svg

<svg width="22" height="32" fill="none" xmlns="http://www.w3.org/2000/svg"><path d="M9.25 17.88c.44-.25 2.37-1.27 5.78-1.27 2.09.02 4.17.35 6.16.98v-4.67c0-.17-.07-.32-.18-.44a.647.647 0 0 0-.44-.18H-.35c-.16 0-.32.07-.44.18-.11.12-.18.27-.18.44v6.77a10.13 10.13 0 0 1 6.77-2.46 8.31 8.31 0 0 1 3.45.65ZM5.8 0c-.16 0-.32.06-.43.18-.12.11-.18.27-.18.43v10.46h10.46V.61c0-.16-.07-.32-.18-.43a.604.604 0 0 0-.44-.18H5.8Z" fill="#FFF"/><path d="M-.35 32h20.92c.17 0 .32-.07.44-.19.11-.11.18-.27.18-.43V19.69a11.07 11.07 0 0 1-6.16 1.84c-1.67.02-3.29-.53-4.61-1.56a7.13 7.13 0 0 0-4.62-1.51c-1.27-.02-2.54.24-3.71.75a9.115 9.115 0 0 0-3.06 2.23v9.94a.631.631 0 0 0 .62.62Z" fill="#FFF"/><path d="m10.59 18.6.52.34c1.11.9 2.5 1.38 3.92 1.36 1.95.01 3.86-.55 5.49-1.62-1.78-.54-3.63-.82-5.49-.84-1.51-.03-3.02.23-4.44.76Z" fill="#FFF"/></svg>

<svg width="22.000000" height="32.000000" viewBox="0 0 22 32" fill="none" xmlns="http://www.w3.org/2000/svg" xmlns:xlink="http://www.w3.org/1999/xlink">
	<desc>
			Created with Pixso.
	</desc>
	<defs/>
	<path id="Vector" d="M9.25 17.88C9.69 17.63 11.62 16.61 15.03 16.61C17.12 16.63 19.2 16.96 21.19 17.59L21.19 12.92C21.19 12.75 21.12 12.6 21.01 12.48C20.89 12.37 20.74 12.3 20.57 12.3L-0.35 12.3C-0.51 12.3 -0.67 12.37 -0.79 12.48C-0.9 12.6 -0.97 12.75 -0.97 12.92L-0.97 19.69C0.91 18.07 3.32 17.19 5.8 17.23C6.99 17.2 8.16 17.42 9.25 17.88Z" fill="#FFFFFF" fill-opacity="1.000000" fill-rule="nonzero"/>
	<path id="Vector" d="M5.8 0C5.64 0 5.48 0.06 5.37 0.18C5.25 0.29 5.19 0.45 5.19 0.61L5.19 11.07L15.65 11.07L15.65 0.61C15.65 0.45 15.58 0.29 15.47 0.18C15.35 0.06 15.2 0 15.03 0L5.8 0Z" fill="#FFFFFF" fill-opacity="1.000000" fill-rule="nonzero"/>
	<path id="Vector" d="M-0.35 32L20.57 32C20.74 32 20.89 31.93 21.01 31.81C21.12 31.7 21.19 31.54 21.19 31.38L21.19 19.69C19.36 20.9 17.22 21.54 15.03 21.53C13.36 21.55 11.74 21 10.42 19.97C9.11 18.94 7.47 18.41 5.8 18.46C4.53 18.44 3.26 18.7 2.09 19.21C0.93 19.73 -0.12 20.49 -0.97 21.44L-0.97 31.38C-0.97 31.54 -0.9 31.7 -0.79 31.81C-0.67 31.93 -0.51 32 -0.35 32Z" fill="#FFFFFF" fill-opacity="1.000000" fill-rule="nonzero"/>
	<path id="Vector" d="M10.59 18.6L11.11 18.94C12.22 19.84 13.61 20.32 15.03 20.3C16.98 20.31 18.89 19.75 20.52 18.68C18.74 18.14 16.89 17.86 15.03 17.84C13.52 17.81 12.01 18.07 10.59 18.6Z" fill="#FFFFFF" fill-opacity="1.000000" fill-rule="nonzero"/>
</svg>
